X:6648
T:H\aa{}kna Johans Polka
C:Ingvar Fohlin
M:2/4
L:1/16
K:G
DBBD B2BD|EccE c2c2|\
EeeE EeeD|DddD d2d2|\
DBBD B2BD|EccE c2c2|\
EeeE EeeF|A2GG G4:|
|:G2Bd g2BB|BddG G2FF|\
F2Ac e2cc|ceeF A2G2|\
G2Bd g2BB|BddG G2FF|\
F2Ac e2cc|ceeF A2GG G4:|
